X:1
T:Casey Jones
M:4/4
L:1/8
K:C
 G| c3/2 c/2 c3/2 c/2 c3/2 B/2 A3/2 G/2| c3/2 c/2 c3/2 c/2 G3 G| c3/2 c/2 c3/2 c/2 c3/2 B/2 A3/2 G/2|\
 A3/2 A/2 ^A3/2 A/2 B2 z G| c3/2 c/2 c3/2 c/2 c3/2 B/2 A3/2 G/2| c3/2 c/2 c3/2 c/2 G2 E3/2 F/2|\
 G3/2 G/2 G3/2 G/2 G3/2 A/2 G3/2 F/2| E2 DD C4| E G3 G4| cd ec d c3|\
 E G3 G3 G| cd ec d4| E G3 G4| cd ec d c2 E| G3/2 G/2 G3/2 G/2 G3/2 A/2 G3/2 F/2|\
 E2 D2 C2 z2|
